wall-sconce-round-variant-outline.svg

<svg fill="currentColor" viewBox="0 0 24 24"><path d="M11 5v3h2V5zM4.91 7.5 3.5 8.91l1.77 1.77 1.41-1.41zm14.18 0-1.77 1.77 1.41 1.41 1.77-1.77zM17.66 14c-.47 1.33-1.4 2.5-2.66 3.19-.92.53-1.96.81-3 .81s-2.08-.28-3-.81C7.74 16.5 6.81 15.33 6.34 14zM20 12H4c0 2.86 1.5 5.5 4 6.93A8 8 0 0 0 12 20a8 8 0 0 0 4-1.07c2.5-1.43 4-4.07 4-6.93"/></svg>

<svg  viewBox="0 0 24 24" fill="currentColor"><path  d="M11 5V8H13V5H11M4.91 7.5L3.5 8.91L5.27 10.68L6.68 9.27L4.91 7.5M19.09 7.5L17.32 9.27L18.73 10.68L20.5 8.91L19.09 7.5M17.66 14C17.19 15.33 16.26 16.5 15 17.19C14.08 17.72 13.04 18 12 18S9.92 17.72 9 17.19C7.74 16.5 6.81 15.33 6.34 14H17.66M20 12H4C4 14.86 5.5 17.5 8 18.93C9.25 19.65 10.63 20 12 20S14.75 19.65 16 18.93C18.5 17.5 20 14.86 20 12Z"/></svg>
